dataset/openchrom/icon.svg

<?xml version="1.0" encoding="UTF-8" standalone="no"?>
<svg
   viewBox="0 0 128 128"
   style="display:inline;enable-background:new"
   version="1.0"
   id="svg11300"
   height="128"
   width="128"
   xml:space="preserve"
   xmlns:xlink="http://www.w3.org/1999/xlink"
   xmlns="http://www.w3.org/2000/svg"
   xmlns:svg="http://www.w3.org/2000/svg"
   xmlns:rdf="http://www.w3.org/1999/02/22-rdf-syntax-ns#"
   xmlns:cc="http://creativecommons.org/ns#"
   xmlns:dc="http://purl.org/dc/elements/1.1/"><title
     id="title4162">Adwaita Icon Template</title><defs
     id="defs3"><linearGradient
       id="linearGradient5"><stop
         style="stop-color:#1a1a1a;stop-opacity:1;"
         offset="0.18000001"
         id="stop8" /><stop
         style="stop-color:#4d4d4d;stop-opacity:1;"
         offset="0.33000001"
         id="stop10" /><stop
         style="stop-color:#1a1a1a;stop-opacity:1;"
         offset="0.47515088"
         id="stop11" /><stop
         style="stop-color:#1a1a1a;stop-opacity:1;"
         offset="0.54000002"
         id="stop12" /><stop
         style="stop-color:#4d4d4d;stop-opacity:1;"
         offset="0.58999997"
         id="stop13" /><stop
         style="stop-color:#1a1a1a;stop-opacity:1;"
         offset="0.64999998"
         id="stop14" /><stop
         style="stop-color:#1a1a1a;stop-opacity:1;"
         offset="0.80000001"
         id="stop15" /><stop
         style="stop-color:#4d4d4d;stop-opacity:1;"
         offset="0.87"
         id="stop16" /><stop
         style="stop-color:#1a1a1a;stop-opacity:1;"
         offset="0.94999999"
         id="stop9" /></linearGradient><linearGradient
       id="linearGradient7"><stop
         style="stop-color:#660000;stop-opacity:1;"
         offset="0.10260008"
         id="stop2" /><stop
         id="stop3"
         offset="0.12376514"
         style="stop-color:#cc0000;stop-opacity:1;" /><stop
         style="stop-color:#660000;stop-opacity:1;"
         offset="0.17405842"
         id="stop4" /><stop
         id="stop5"
         offset="0.91666669"
         style="stop-color:#660000;stop-opacity:1;" /><stop
         style="stop-color:#cc0000;stop-opacity:1;"
         offset="0.95833331"
         id="stop6" /><stop
         style="stop-color:#660000;stop-opacity:1;"
         offset="1"
         id="stop7" /></linearGradient><linearGradient
       xlink:href="#linearGradient7"
       id="linearGradient2"
       x1="12"
       y1="66"
       x2="116"
       y2="66"
       gradientUnits="userSpaceOnUse"
       gradientTransform="translate(0,0.7520943)" /><linearGradient
       xlink:href="#linearGradient5"
       id="linearGradient9"
       x1="0"
       y1="83.077233"
       x2="98.106912"
       y2="83.077233"
       gradientUnits="userSpaceOnUse" /></defs><metadata
     id="metadata4"><rdf:RDF><cc:Work
         rdf:about=""><dc:format>image/svg+xml</dc:format><dc:type
           rdf:resource="http://purl.org/dc/dcmitype/StillImage" /><dc:creator><cc:Agent><dc:title>GNOME Design Team</dc:title></cc:Agent></dc:creator><dc:source /><cc:license
           rdf:resource="http://creativecommons.org/licenses/by-sa/4.0/" /><dc:title>Adwaita Icon Template</dc:title><dc:subject><rdf:Bag /></dc:subject><dc:date /><dc:rights><cc:Agent><dc:title /></cc:Agent></dc:rights><dc:publisher><cc:Agent><dc:title /></cc:Agent></dc:publisher><dc:identifier /><dc:relation /><dc:language /><dc:coverage /><dc:description /><dc:contributor><cc:Agent><dc:title /></cc:Agent></dc:contributor></cc:Work><cc:License
         rdf:about="http://creativecommons.org/licenses/by-sa/4.0/"><cc:permits
           rdf:resource="http://creativecommons.org/ns#Reproduction" /><cc:permits
           rdf:resource="http://creativecommons.org/ns#Distribution" /><cc:requires
           rdf:resource="http://creativecommons.org/ns#Notice" /><cc:requires
           rdf:resource="http://creativecommons.org/ns#Attribution" /><cc:permits
           rdf:resource="http://creativecommons.org/ns#DerivativeWorks" /><cc:requires
           rdf:resource="http://creativecommons.org/ns#ShareAlike" /></cc:License></rdf:RDF></metadata><path
     id="rect1"
     style="display:inline;fill:url(#linearGradient2);fill-opacity:1;stroke:none;stroke-width:0.25;stroke-linecap:butt;stroke-linejoin:miter;stroke-miterlimit:4;stroke-dasharray:none;stroke-dashoffset:0;stroke-opacity:1;marker:none;marker-start:none;marker-mid:none;marker-end:none;paint-order:normal;enable-background:new"
     d="M 20 40.679688 C 15.568 40.679688 12 44.247684 12 48.679688 L 12 98.859375 L 23 98.859375 L 23 55.679688 C 23 53.463687 24.784 51.679688 27 51.679688 L 101 51.679688 C 103.216 51.679688 105 53.463687 105 55.679688 L 105 100.67969 C 105 102.89569 103.216 104.67969 101 104.67969 L 41.734375 104.67969 L 37.6875 111.67969 L 37.6875 115.67969 L 108 115.67969 C 112.432 115.67969 116 112.11169 116 107.67969 L 116 48.679688 C 116 44.247687 112.432 40.679688 108 40.679688 L 20 40.679688 z " /><path
     id="path5"
     style="fill:url(#linearGradient9);fill-opacity:1"
     d="m 72.232422,54.705078 c -1.596117,-0.0025 -3.151374,0.784457 -4.574219,2.359375 -2.195141,2.429758 -2.831395,4.676835 -5.119141,18.117188 -1.87606,11.02172 -3.019459,15.900255 -3.847656,16.412109 -0.567973,0.351027 -1.921753,-3.908603 -4.552734,-14.320312 -2.370531,-9.381017 -3.210297,-11.552299 -5.023438,-12.978516 -1.708621,-1.344001 -4.481557,-1.253565 -6.044922,0.195312 -2.144165,1.987145 -3.218618,4.888222 -4.71875,12.736328 -3.612645,18.899967 -4.984072,22.767335 -8.742187,24.660158 -3.571286,1.79872 -11.201286,2.35891 -22.0820312,1.62109 C 4.7921903,103.32234 2.1772772,103.10957 0,102.91211 v 7.80469 c 1.5043217,0.1581 2.8444326,0.31497 4.4433594,0.45898 6.4097456,0.57732 19.9034256,0.1902 23.9140626,-0.68555 4.134357,-0.90275 7.739157,-2.84947 9.580078,-5.17382 2.971909,-3.75235 5.744728,-11.998898 7.208984,-21.437504 0.329836,-2.126131 0.751077,-4.035317 0.935547,-4.242187 0.184469,-0.20687 1.141194,2.714579 2.126953,6.492187 0.985758,3.777607 2.447391,8.242299 3.248047,9.919922 4.245728,8.896122 12.501197,6.510392 15.902344,-4.595703 0.543127,-1.773525 1.855824,-8.211923 2.917969,-14.306641 1.062145,-6.094718 2.023801,-11.17419 2.136718,-11.287109 0.409419,-0.409418 1.719183,5.153088 3.16211,13.429687 2.323041,13.324914 3.285359,15.952807 7.064453,19.279297 3.24572,2.857001 6.585411,3.764331 11.050781,3.003911 1.85706,-0.31625 4.551609,-0.90102 4.410156,-1.17579 V 96.396484 L 94.685547,93.761719 92.017578,94.0625 c -5.07938,0.571017 -5.796011,-0.806997 -8.707031,-16.753906 -2.443068,-13.383461 -3.79902,-17.761911 -6.265625,-20.228516 -1.579643,-1.579642 -3.216383,-2.372488 -4.8125,-2.375 z" /><path
     id="rect1711"
     style="display:inline;fill:#990000;fill-opacity:1;stroke:none;stroke-width:0.25;stroke-linecap:butt;stroke-linejoin:miter;stroke-miterlimit:4;stroke-dasharray:none;stroke-dashoffset:0;stroke-opacity:1;marker:none;marker-start:none;marker-mid:none;marker-end:none;paint-order:normal;enable-background:new"
     d="M 20 36.679688 C 15.568 36.679688 12 40.247687 12 44.679688 L 12 94.859375 L 23 94.859375 L 23 51.679688 C 23 49.463687 24.784 47.679688 27 47.679688 L 101 47.679688 C 103.216 47.679688 105 49.463687 105 51.679688 L 105 96.679688 C 105 98.895687 103.216 100.67969 101 100.67969 L 44.03125 100.67969 L 37.6875 111.67969 L 108 111.67969 C 112.432 111.67969 116 108.11169 116 103.67969 L 116 44.679688 C 116 40.247687 112.432 36.679688 108 36.679688 L 20 36.679688 z " /><path
     id="path2"
     style="fill:#333333;fill-opacity:1"
     d="M 72.232422 50.705078 C 70.636305 50.702567 69.081048 51.489535 67.658203 53.064453 C 65.463062 55.494211 64.826808 57.741288 62.539062 71.181641 C 60.663002 82.203361 59.519603 87.081896 58.691406 87.59375 C 58.123433 87.944777 56.769653 83.685147 54.138672 73.273438 C 51.768141 63.892421 50.928375 61.721139 49.115234 60.294922 C 47.406613 58.950921 44.633677 59.041357 43.070312 60.490234 C 40.926147 62.477379 39.851694 65.378456 38.351562 73.226562 C 34.738917 92.126529 33.36749 95.993897 29.609375 97.886719 C 26.038089 99.685442 18.408089 100.24563 7.5273438 99.507812 C 4.7921903 99.322344 2.1772772 99.109566 0 98.912109 L 0 106.7168 C 1.5043217 106.8749 2.8444326 107.03177 4.4433594 107.17578 C 10.853105 107.7531 24.346785 107.36598 28.357422 106.49023 C 32.491779 105.58748 36.096579 103.64076 37.9375 101.31641 C 40.909409 97.564061 43.682228 89.317512 45.146484 79.878906 C 45.47632 77.752775 45.897561 75.843589 46.082031 75.636719 C 46.2665 75.429849 47.223225 78.351298 48.208984 82.128906 C 49.194742 85.906513 50.656375 90.371205 51.457031 92.048828 C 55.702759 100.94495 63.958228 98.559221 67.359375 87.453125 C 67.902502 85.6796 69.215199 79.241202 70.277344 73.146484 C 71.339489 67.051766 72.301145 61.972294 72.414062 61.859375 C 72.823481 61.449957 74.133245 67.012463 75.576172 75.289062 C 77.899213 88.613976 78.861531 91.241869 82.640625 94.568359 C 85.886345 97.425362 89.226036 98.332688 93.691406 97.572266 C 95.548466 97.256022 98.243015 96.671254 98.101562 96.396484 L 94.685547 89.761719 L 92.017578 90.0625 C 86.938198 90.633517 86.221567 89.255503 83.310547 73.308594 C 80.867479 59.925133 79.511527 55.546683 77.044922 53.080078 C 75.465279 51.500436 73.828539 50.70759 72.232422 50.705078 z " /></svg>

<svg xmlns="http://www.w3.org/2000/svg" xmlns:xlink="http://www.w3.org/1999/xlink" xml:space="preserve" width="128" height="128" style="display:inline" viewBox="0 0 128 128"><title>Adwaita Icon Template</title><defs><linearGradient id="b"><stop offset=".18" style="stop-color:#1a1a1a;stop-opacity:1"/><stop offset=".33" style="stop-color:#4d4d4d;stop-opacity:1"/><stop offset=".475" style="stop-color:#1a1a1a;stop-opacity:1"/><stop offset=".54" style="stop-color:#1a1a1a;stop-opacity:1"/><stop offset=".59" style="stop-color:#4d4d4d;stop-opacity:1"/><stop offset=".65" style="stop-color:#1a1a1a;stop-opacity:1"/><stop offset=".8" style="stop-color:#1a1a1a;stop-opacity:1"/><stop offset=".87" style="stop-color:#4d4d4d;stop-opacity:1"/><stop offset=".95" style="stop-color:#1a1a1a;stop-opacity:1"/></linearGradient><linearGradient id="a"><stop offset=".103" style="stop-color:#600;stop-opacity:1"/><stop offset=".124" style="stop-color:#c00;stop-opacity:1"/><stop offset=".174" style="stop-color:#600;stop-opacity:1"/><stop offset=".917" style="stop-color:#600;stop-opacity:1"/><stop offset=".958" style="stop-color:#c00;stop-opacity:1"/><stop offset="1" style="stop-color:#600;stop-opacity:1"/></linearGradient><linearGradient xlink:href="#a" id="c" x1="12" x2="116" y1="66" y2="66" gradientTransform="translate(0 .752)" gradientUnits="userSpaceOnUse"/><linearGradient xlink:href="#b" id="d" x1="0" x2="98.107" y1="83.077" y2="83.077" gradientUnits="userSpaceOnUse"/></defs><path d="M20 40.68c-4.432 0-8 3.568-8 8v50.18h11V55.68c0-2.216 1.784-4 4-4h74c2.216 0 4 1.784 4 4v45c0 2.216-1.784 4-4 4H41.734l-4.047 7v4H108c4.432 0 8-3.568 8-8v-59c0-4.432-3.568-8-8-8z" style="display:inline;fill:url(#c);fill-opacity:1;stroke:none;stroke-width:.25;stroke-linecap:butt;stroke-linejoin:miter;stroke-miterlimit:4;stroke-dasharray:none;stroke-dashoffset:0;stroke-opacity:1;marker:none;marker-start:none;marker-mid:none;marker-end:none;paint-order:normal"/><path d="M72.232 54.705c-1.596-.002-3.151.785-4.574 2.36-2.195 2.43-2.831 4.676-5.119 18.117-1.876 11.021-3.02 15.9-3.848 16.412-.568.35-1.921-3.909-4.552-14.32-2.37-9.382-3.21-11.553-5.024-12.98-1.708-1.343-4.481-1.253-6.045.196-2.144 1.987-3.218 4.888-4.718 12.737-3.613 18.9-4.985 22.767-8.743 24.66-3.57 1.798-11.2 2.359-22.082 1.62-2.735-.185-5.35-.397-7.527-.595v7.805c1.504.158 2.844.315 4.443.459 6.41.577 19.904.19 23.914-.686 4.135-.903 7.74-2.85 9.58-5.174 2.972-3.752 5.745-11.998 7.21-21.437.33-2.126.75-4.035.935-4.242.184-.207 1.141 2.714 2.127 6.492s2.447 8.242 3.248 9.92c4.246 8.896 12.501 6.51 15.902-4.596.544-1.773 1.856-8.212 2.918-14.307 1.062-6.094 2.024-11.174 2.137-11.287.41-.409 1.72 5.153 3.162 13.43 2.323 13.325 3.286 15.953 7.065 19.28 3.245 2.856 6.585 3.764 11.05 3.003 1.857-.316 4.552-.9 4.41-1.176v-4l-3.415-2.634-2.668.3c-5.08.572-5.796-.806-8.707-16.753-2.444-13.384-3.8-17.762-6.266-20.229-1.58-1.58-3.216-2.372-4.813-2.375" style="fill:url(#d);fill-opacity:1"/><path d="M20 36.68c-4.432 0-8 3.568-8 8v50.18h11V51.68c0-2.216 1.784-4 4-4h74c2.216 0 4 1.784 4 4v45c0 2.216-1.784 4-4 4H44.031l-6.343 11H108c4.432 0 8-3.568 8-8v-59c0-4.432-3.568-8-8-8z" style="display:inline;fill:#900;fill-opacity:1;stroke:none;stroke-width:.25;stroke-linecap:butt;stroke-linejoin:miter;stroke-miterlimit:4;stroke-dasharray:none;stroke-dashoffset:0;stroke-opacity:1;marker:none;marker-start:none;marker-mid:none;marker-end:none;paint-order:normal"/><path d="M72.232 50.705c-1.596-.002-3.151.785-4.574 2.36-2.195 2.43-2.831 4.676-5.119 18.117-1.876 11.021-3.02 15.9-3.848 16.412-.568.35-1.921-3.909-4.552-14.32-2.37-9.382-3.21-11.553-5.024-12.98-1.708-1.343-4.481-1.253-6.045.196-2.144 1.987-3.218 4.888-4.718 12.737-3.613 18.9-4.985 22.767-8.743 24.66-3.57 1.798-11.2 2.359-22.082 1.62-2.735-.185-5.35-.397-7.527-.595v7.805c1.504.158 2.844.315 4.443.459 6.41.577 19.904.19 23.914-.686 4.135-.903 7.74-2.85 9.58-5.174 2.972-3.752 5.745-11.998 7.21-21.437.33-2.126.75-4.035.935-4.242.184-.207 1.141 2.714 2.127 6.492s2.447 8.242 3.248 9.92c4.246 8.896 12.501 6.51 15.902-4.596.544-1.773 1.856-8.212 2.918-14.307 1.062-6.094 2.024-11.174 2.137-11.287.41-.409 1.72 5.153 3.162 13.43 2.323 13.325 3.286 15.953 7.065 19.28 3.245 2.856 6.585 3.764 11.05 3.003 1.857-.316 4.552-.9 4.41-1.176l-3.415-6.634-2.668.3c-5.08.572-5.796-.806-8.707-16.753-2.444-13.384-3.8-17.762-6.266-20.229-1.58-1.58-3.216-2.372-4.813-2.375" style="fill:#333;fill-opacity:1"/></svg>
